**kern	**dynam	**kern	**dynam	**kern	**dynam	**kern	**dynam	**mxhm
*part4	*part4	*part3	*part3	*part2	*part2	*part1	*part1	*part1
*staff4	*	*staff3	*	*staff2	*	*staff1	*	*
*I"Cello	*	*I"Viola	*	*I"2nd Violin	*	*I"1st Violin	*	*
*clefF4	*	*clefC3	*	*clefG2	*	*clefG2	*	*
*k[f#c#g#]	*	*k[f#c#g#]	*	*k[f#c#g#]	*	*k[f#c#g#]	*	*
*M3/4	*	*M3/4	*	*M3/4	*	*M3/4	*	*
4r	.	4r	.	4r	.	4e	p	.C.I
=1	=1	=1	=1	=1	=1	=1	=1	=1
(4.AAA	p	(4.c#	p	(4.e	p	(4.a	.	.
8CC#	.	8A	.	8c#	.	8e	.	.
8EEL	.	8EL	.	8AL	.	8c#L	.	.
8AAJ)	.	8C#J)	.	8EJ)	.	8AJ)	.	.
=2	=2	=2	=2	=2	=2	=2	=2	=2
(2BB	.	(2D	.	2E	.	(4A	.	V43(4)
.	.	.	.	.	.	4G#	.	V43
4AA)	.	4C#)	.	4E	.	4A)	.	I
.	.	.	.	.	.	(32qqB/LLL	.	.
.	.	.	.	.	.	32qqA/	.	.
.	.	.	.	.	.	32qqG#/	.	.
.	.	.	.	.	.	32qqA/JJJ)	.	.
=3	=3	=3	=3	=3	=3	=3	=3	=3
4.EE	.	8EL	.	(4A	.	(4c#	.	V(64)
.	.	8D#XJ	.	.	.	.	.	.
.	.	8E	.	8G#)	.	8B)	.	V\\
8r	.	8r	.	8r	.	8r	.	.
4r	.	4r	.	4r	.	8d	.	.
.	.	.	.	.	.	8r	.	.
=4	=4	=4	=4	=4	=4	=4	=4	=4
!LO:TX:b:Bi:t=cresc.	!	!LO:TX:b:Bi:t=cresc.	!	!LO:TX:b:Bi:t=cresc.	!	!LO:TX:b:Bi:t=cresc.	!	!
4.EE	.	4.G#	.	4.B	.	(4.dd	.	V7
(8EL	.	(8G#L	.	8dL	.	8bL	.	.
8E#X	.	8B	.	(8d	.	8g#	.	#viio7/vi
8F#J)	.	8AJ)	.	8c#J)	.	8aJ)	.	vi
=5	=5	=5	=5	=5	=5	=5	=5	=5
!	!	!	!LO:DY:a	!	!	!	!	!
4D	p	(4F#	p p	(2F#	.	4B	p	ii6
.	.	.	.	.	.	(32qqB/LLL	.	.
.	.	.	.	.	.	32qqd/JJJ)	.	.
(4BBB	.	4D)	.	.	.	[4f#	.	ii
4EE)	.	4D	.	4G#)	.	16f#LL]	.	V7(9)
.	.	.	.	.	.	(32eL	.	V7
.	.	.	.	.	.	32d	.	.
.	.	.	.	.	.	32c#	.	.
.	.	.	.	.	.	32B	.	.
.	.	.	.	.	.	32A	.	.
.	.	.	.	.	.	32G#JJJ)	.	.
=6	=6	=6	=6	=6	=6	=6	=6	=6
2AAA	.	(8.DL	.	(4G#	.	(4B	.	I(4+2)
.	.	32ELL	.	.	.	.	.	.
.	.	32DJJJ)	.	.	.	.	.	.
.	.	8C#	.	8E)	.	8A)	.	I\\
.	.	8r	.	8r	.	8r	.	.
4r	.	4r	.	4r	.	(16ALL	.	.
.	.	.	.	.	.	16c#	.	.
.	.	.	.	.	.	16e	.	.
.	.	.	.	.	.	16aJJ)	.	.
=7	=7	=7	=7	=7	=7	=7	=7	=7
4.AA	.	4.A	.	4.E 4.c#	.	[4cc#	.	I
.	.	.	.	.	.	(32cc#LLL]	.	.
.	.	.	.	.	.	32b	.	.
.	.	.	.	.	.	32a	.	.
.	.	.	.	.	.	32g#	.	.
8r	.	8r	.	8r	.	32a	.	.
.	.	.	.	.	.	32b	.	.
.	.	.	.	.	.	32cc#	.	.
.	.	.	.	.	.	32ddJJJ)	.	.
4r	.	4r	.	4r	.	(32eeLLL	.	.
.	.	.	.	.	.	32dd#X	.	.
.	.	.	.	.	.	32ff#	.	.
.	.	.	.	.	.	32ee	.	.
.	.	.	.	.	.	32dd	.	.
.	.	.	.	.	.	32cc#	.	.
.	.	.	.	.	.	32b	.	.
.	.	.	.	.	.	32aJJJ)	.	.
=8	=8	=8	=8	=8	=8	=8	=8	=8
(8AAL	.	(8EL	.	(8c#L	.	(4cc#	.	I6
8C#J	.	8AJ	.	8eJ	.	.	.	.
8E)	.	8G#)	.	8B)	.	8b)	.	V
8r	.	8r	.	8r	.	8r	.	.
4r	.	4r	.	4r	.	(16ALL	.	I
.	.	.	.	.	.	16c#	.	.
.	.	.	.	.	.	16e	.	.
.	.	.	.	.	.	16aJJ)	.	.
=9	=9	=9	=9	=9	=9	=9	=9	=9
4.AA	.	4.A	.	4.E 4.c#	.	[4cc#	.	.
.	.	.	.	.	.	(32cc#LLL]	.	.
.	.	.	.	.	.	32a	.	.
.	.	.	.	.	.	32ee	.	.
.	.	.	.	.	.	32dd#X)	.	.
8r	.	8r	.	8r	.	(32ee	.	.
.	.	.	.	.	.	32cc#	.	.
.	.	.	.	.	.	32aa	.	.
.	.	.	.	.	.	32gg#JJJ)	.	.
4r	.	4r	.	4r	.	(32aaLLL	.	.
.	.	.	.	.	.	32ee)	.	.
.	.	.	.	.	.	(32ccc#	.	.
.	.	.	.	.	.	32aa	.	.
.	.	.	.	.	.	32ee	.	.
.	.	.	.	.	.	32cc#	.	.
.	.	.	.	.	.	32b	.	.
.	.	.	.	.	.	32aJJJ)	.	.
=10	=10	=10	=10	=10	=10	=10	=10	=10
(8AAL	.	(8EL	.	(8c#L	.	8cc#L	.	.
.	.	.	.	.	.	(16qqdd/LL	.	I6
.	.	.	.	.	.	16qqcc#/	.	.
.	.	.	.	.	.	16qqb/JJ)	.	.
8C#	.	8A	.	8e	.	(32cc#LL	.	.
.	.	.	.	.	.	32dd	.	.
.	.	.	.	.	.	32dd#X	.	.
.	.	.	.	.	.	32eeJJJ)	.	.
.	.	.	.	.	.	8qa#X/	.	V
8EJ)	.	8G#J)	.	8BJ)	.	8b	.	.
.	.	.	.	.	.	8qa#/	.	.
8r	.	(8BL	.	8r	.	8b	.	.
4r	.	8G#	.	4r	.	4r	.	.
.	.	8EJ)	.	.	.	.	.	.
=11	=11	=11	=11	=11	=11	=11	=11	=11
(4AA	< >	(8F#L	<	(8d#XL	<	4.b	.	V6
.	.	16.D#XL	>	16.f#L	>	.	.	.
.	.	32BBJJk)	]	32d#JJk)	]	.	.	.
8GG#)	.	8E	]	8g#	]	.	.	.
8r	.	8r	.	8r	.	(16.cc#LL	.	.
.	.	.	.	.	.	32bJJk)	.	.
4r	]]	4r	.	4r	.	(16.eeLL	.	.
.	.	.	.	.	.	32bK)	.	.
.	.	.	.	.	.	(16.gg#	.	.
.	.	.	.	.	.	32bJJk)	.	.
=12	=12	=12	=12	=12	=12	=12	=12	=12
(4AA	] > <	(8F#L	<	(8d#XL	<	4.b	.	I6
.	.	16.D#XL	>	16.f#L	>	.	.	.
.	.	32BBJJk)	]	32d#JJk)	]	.	.	.
4GG#)	.	8E	]	8g#	]	.	.	.
.	.	4E	.	(4B	.	(16.cc#LL	.	.
.	.	.	.	.	.	32bJJk)	.	.
4GG#	[[	.	.	.	.	(16.eeLL	.	.
.	.	.	.	.	.	32bK)	.	.
.	.	8E	.	8B#X)	.	(16.gg#	.	.
.	.	.	.	.	.	32b#XJJk)	.	.
=13	=13	=13	=13	=13	=13	=13	=13	=13
!LO:TX:b:Bi:t=cresc.	!	!LO:TX:b:Bi:t=cresc.	!	!LO:TX:b:Bi:t=cresc.	!	!LO:TX:b:Bi:t=cresc.	!	!
(8.AAL	[ p	(16ELL	p	(8.c#L	p	(32dd#XLLL	p	IV
.	.	.	.	.	.	32cc#	.	.
.	.	16FX	.	.	.	32b	.	.
.	.	.	.	.	.	32aJJJ	.	.
.	.	16F#	.	.	.	32g#LLL	.	ii6
.	.	.	.	.	.	32f#)	.	.
16AA#XJk)	.	16GXJJ)	.	16eJk)	.	32cc#'	.	#viio7/V
.	.	.	.	.	.	32cc#'JJJ	.	.
4BB	.	8G#L	.	8eL	.	(8cc#L	.	V(64+2)
.	.	(8G#J	.	(8BJ	.	[8eJ)	.	.
4BBB	.	8F#L)	.	8AL)	.	8e]	.	V7(4)
.	.	.	.	.	.	(8qqf#/L	.	.
.	.	.	.	.	.	8qqe/	.	.
.	.	.	.	.	.	8qqd#X/	.	.
.	.	.	.	.	.	8qqe/	.	.
.	.	.	.	.	.	8qqf#/	.	.
.	.	.	.	.	.	8qqg#/	.	.
.	.	.	.	.	.	8qqa/	.	.
.	.	.	.	.	.	8qqb/J	.	.
.	.	8F#J	.	8AJ	.	16cc#LL)	.	.
.	.	.	.	.	.	32r	.	.
.	.	.	.	.	.	32d#JJk	.	V7
=14	=14	=14	=14	=14	=14	=14	=14	=14
4.EE	.	8r	.	(8.AL	.	(4f#	.	I(4+2)
.	.	(8D#XL	.	.	.	.	.	.
.	.	.	.	32BLL	.	.	.	.
.	.	.	.	32AJJJ)	.	.	.	.
.	.	8EJ)	.	8G#	.	8e)	.	I\\
(8EL	.	8r	.	8r	.	8r	.	.
8G#	.	4r	.	4r	.	(8e'L	.	I6
8BJ)	.	.	.	.	.	8e'J)	.	.
=15	=15	=15	=15	=15	=15	=15	=15	=15
(4.d	<	4.B	<	4.e	<	(4.g#	<	I.V2
8c#L	.	8AL	.	8eL	.	8aL	.	I6
8G#	[ >	8d	[ >	8e	[ >	8b	[ >	V65
16.AL	.	(16.c#L	.	(16.eL	.	16.cc#L	.	I
32c#JJk)	]]	32eJJk)	]]	32aJJk)	]]	32aJJk)	]]	.
=16	=16	=16	=16	=16	=16	=16	=16	=16
(16eLL	.	8eL	.	(4a	.	(4cc#	.	V(64)
16d#X	.	.	.	.	.	.	.	.
16e	.	8E	.	.	.	.	.	.
16d#JJ	.	.	.	.	.	.	.	.
8e)	.	8EJ	.	8g#)	.	8b)	.	V\\
(8EEL	.	(8EL	.	8r	.	8r	.	V
8GG#	.	8G#	.	(8e'L	.	(8ee'L	.	.
8BBJ)	.	8BJ)	.	8e'J)	.	8ee'J)	.	.
=17	=17	=17	=17	=17	=17	=17	=17	=17
!LO:TX:b:Bi:t=cresc.	!	!LO:TX:b:Bi:t=cresc.	!	!LO:TX:b:Bi:t=cresc.	!	!LO:TX:a:Bi:t=cresc.	!	!
4.D	.	4.E 4.e	.	4.g#	.	4.gg#	.	V2
(8C#L	.	8EL 8e	.	(8aL	.	(8aaL	.	I6
8GG#	.	8E 8d	.	8b	.	8bb	.	V65
8AAJ)	.	8EJ 8c#	.	16.cc#L	.	16.ccc#L	.	I
.	.	.	.	32aJJk)	.	32aaJJk)	.	.
=18	=18	=18	=18	=18	=18	=18	=18	=18
2EE	fp	2E 2B	fp	[4dd	fp	[4ddd	fp	V7
.	.	.	.	16ddLL]	.	16dddLL]	.	.
.	.	.	.	(16b	.	(16bb	.	.
.	.	.	.	16g#	.	16gg#	.	.
.	.	.	.	16eJJ	.	16eeJJ	.	.
4r	.	4r	.	16fXLL	.	16ffXLL	.	.
.	.	.	.	16f#	.	16ff#	.	.
.	.	.	.	16gX	.	16ggX	.	.
.	.	.	.	16g#JJ)	.	16gg#JJ)	.	.
=19	=19	=19	=19	=19	=19	=19	=19	=19
4.AA	.	4.AA 4.A	.	8a	.	(4.aa	.	I
.	.	.	.	4E 4c#	.	.	.	.
(8AA'	.	(8AA'L 8A	.	(8E'L 8c#	.	8ee	.	.
8AA'L	.	8AA' 8A	.	8E' 8c#	.	8cc#L	.	.
8AA'J)	.	8AA'J) 8A	.	8E'J) 8c#	.	8aJ)	.	.
=20	=20	=20	=20	=20	=20	=20	=20	=20
4.AA	.	4.AA 4.A	.	8r	.	(4.aa	.	.
.	.	.	.	4E 4c#	.	.	.	.
(8AA'	.	(8AA'L 8A	.	(8E'L 8c#	.	8ee	.	.
8AA'L	.	8AA' 8A	.	8E' 8c#	.	8cc#L	.	.
8AA'J)	.	8AA'J) 8A	.	8E'J) 8c#	.	8aJ)	.	.
=21	=21	=21	=21	=21	=21	=21	=21	=21
!LO:TX:b:Bi:t=cresc.	!	!LO:TX:b:Bi:t=cresc.	!	!LO:TX:b:Bi:t=cresc.	!	!LO:TX:b:Bi:t=cresc.	!	!
4FF#	f	4AA 4A	f	4d	f	4aa	f	IV6
4FF#	.	4AA 4A	.	4d	.	4bb	.	ii43
4FFX	.	4AA 4A	.	4d#X	.	4ccX 4cccX	.	.Ger6
=22	=22	=22	=22	=22	=22	=22	=22	=22
!	!LO:DY:a	!	!LO:DY:a	!	!	!	!	!
2EE	fp fp	8AAL 8A	fp	8EL 8e	.	4cc# [4ccc#	fp	V(64)
.	.	(8C#J	.	(8EJ	.	.	.	.
.	.	8EL	.	8AL	.	32ccc#LLL]	.	.
.	.	.	.	.	.	(32cccX	.	.
.	.	.	.	.	.	32ddd	.	.
.	.	.	.	.	.	32ccc#	.	.
.	.	8AJ	.	8c#J	.	32bb	.	.
.	.	.	.	.	.	32aa	.	.
.	.	.	.	.	.	32gg#	.	.
.	.	.	.	.	.	32ff#JJJ)	.	.
4EE	.	8G#L	.	8dL	.	(32eeLLL	.	V7
.	.	.	.	.	.	32ee#X	.	.
.	.	.	.	.	.	32gg#	.	.
.	.	.	.	.	.	32ff#	.	.
.	.	8DJ)	.	8G#J)	.	32ee	.	.
.	.	.	.	.	.	32dd	.	.
.	.	.	.	.	.	32cc#	.	.
.	.	.	.	.	.	32bJJJ)	.	.
=23	=23	=23	=23	=23	=23	=23	=23	=23
8AA	pp	8C#	pp	8A	pp	8a	pp	I\\
8r	.	8r	.	8r	.	8r	.	.
4r	.	4r	.	4r	.	4r	.	.
(16D'LL	.	(16E'LL	.	(16B'LL	.	(16g#'LL	.	V2
16D'	.	16E'	.	16B'	.	16g#'	.	.
16D'	.	16E'	.	16A'	.	16f#'	.	.
16D'JJ)	.	16E'JJ)	.	16G#'JJ)	.	16e'JJ)	.	.
=24	=24	=24	=24	=24	=24	=24	=24	=24
8C#	.	8E	.	8A	.	8a	.	I6
8r	.	8r	.	8r	.	8r	.	.
4r	.	4r	.	4r	.	4r	.	.
(16GG#'LL	.	(16B'LL	.	(16E'LL 16d	.	(16e'LL	.	V65
16GG#'	.	16B'	.	16E' 16d	.	16e'	.	.
16FF#'	.	16A'	.	16E' 16d	.	16e'	.	.
16EE'JJ)	.	16G#'JJ)	.	16E'JJ) 16d	.	16e'JJ)	.	.
=25	=25	=25	=25	=25	=25	=25	=25	=25
8AA	.	8A	.	8E 8c#	.	8e	.	I
8r	.	8r	.	8r	.	8r	.	.
4r	.	4r	.	4r	.	4r	.	.
8AAA	.	8E	.	8A	.	8c#	.	.
8r	.	8r	.	8r	.	8r	.	.
=26	=26	=26	=26	=26	=26	=26	=26	=26
8AAA	.	8C#	.	8E	.	8A	.	I\\
8r	.	8r	.	8r	.	8r	.	.
4r	.	4r	.	4r	.	4r	.	.
=27||	=27||	=27||	=27||	=27||	=27||	=27||	=27||	=27||
*k[f#c#]	*	*k[f#c#]	*	*k[f#c#]	*	*k[f#c#]	*	*
*D:	*	*D:	*	*D:	*	*D:	*	*
*M2/4	*	*M2/4	*	*M2/4	*	*M2/4	*	*
!	!	!	!	!	!	!LO:TX:a:B:t=Allegro	!	!
4r	.	4r	.	4r	.	16a'LL	pp	IV.I
.	.	.	.	.	.	16a'	.	.
.	.	.	.	.	.	16g'	.	.
.	.	.	.	.	.	16f#'JJ	.	.
=28	=28	=28	=28	=28	=28	=28	=28	=28
2r	.	2r	.	2r	.	8b	.	ii
.	.	.	.	.	.	8r	.	.
.	.	.	.	.	.	16gLL	.	.
.	.	.	.	.	.	16g	.	.
.	.	.	.	.	.	16f#	.	.
.	.	.	.	.	.	16eJJ	.	.
=	=	=	=	=	=	=	=	=
4r	.	4r	.	4r	.	8a	.	V
.	.	.	.	.	.	8r	.	.
=29!|:	=29!|:	=29!|:	=29!|:	=29!|:	=29!|:	=29!|:	=29!|:	=29!|:
4r	.	4r	.	4r	.	16a'LL	p	V-I
.	.	.	.	.	.	(16a	.	.
.	.	.	.	.	.	16g	.	.
.	.	.	.	.	.	16f#JJ)	.	.
=30	=30	=30	=30	=30	=30	=30	=30	=30
8D	p	16A'LL	p	[2A	p	16f#'LL	.	I
.	.	(16A	.	.	.	(16f#	.	.
8r	.	16G	.	.	.	16e	.	.
.	.	16F#JJ)	.	.	.	16dJJ)	.	.
8D	.	16F#'LL	.	.	.	16d'LL	.	.
.	.	(16F#	.	.	.	(16d	.	.
8r	.	16E	.	.	.	16c#)	.	.
.	.	16DJJ)	.	.	.	16d'JJ	.	.
=31	=31	=31	=31	=31	=31	=31	=31	=31
8AA	.	8C#	.	8A]	.	(16d#XLL	.	V
.	.	.	.	.	.	16e)	.	.
4r	.	8r	.	8r	.	16e'	.	.
.	.	.	.	.	.	16e'JJ	.	.
.	.	4r	.	4r	.	16b'LL	.	.
.	.	.	.	.	.	(16b	.	.
8r	.	.	.	.	.	16a	.	.
.	.	.	.	.	.	16gJJ)	.	.
=32	=32	=32	=32	=32	=32	=32	=32	=32
8AAA	.	16B'LL	.	[2A	.	16g'LL	.	V7
.	.	(16B	.	.	.	(16g	.	.
8r	.	16A	.	.	.	16f#)	.	.
.	.	16GJJ)	.	.	.	16e'JJ	.	.
8AA	.	16G'LL	.	.	.	16e'LL	.	.
.	.	(16G	.	.	.	(16e	.	.
8r	.	16F#	.	.	.	16d)	.	.
.	.	16EJJ)	.	.	.	16e'JJ	.	.
=33	=33	=33	=33	=33	=33	=33	=33	=33
8DD	.	4D	.	8A]	.	(16e#XLL	.	I
.	.	.	.	.	.	16f#)	.	.
8r	.	.	.	8r	.	16f#'	.	.
.	.	.	.	.	.	16f#'JJ	.	.
(4D	.	[4A	.	16f#'LL	.	16dd'LL	.	I.IV
.	.	.	.	(16f#	.	(16dd	.	.
.	.	.	.	16e	.	16ee	.	.
.	.	.	.	16dJJ)	.	16ff#JJ)	.	.
=34	=34	=34	=34	=34	=34	=34	=34	=34
8AA)	.	4A]	.	16c#'LL	.	16ee'LL	.	I
.	.	.	.	(16c#	.	(16ee	.	.
8r	.	.	.	16d	.	16dd	.	.
.	.	.	.	16eJJ)	.	16cc#JJ)	.	.
(4EE	.	(4G#	.	16d'LL	.	16b'LL	.	V7
.	.	.	.	(16d	.	(16b	.	.
.	.	.	.	16c#	.	16cc#	.	.
.	.	.	.	16BJJ)	.	16ddJJ)	.	.
=35	=35	=35	=35	=35	=35	=35	=35	=35
!	!	!	!LO:DY:a	!	!	!	!	!
8AA)	f	8A)	f f	16A'LL	.	16cc#'LL	f	I
.	.	.	.	(16A	.	(16cc#	.	.
8r	.	8r	.	16B	.	16b	.	.
.	.	.	.	16c#JJ)	.	16aJJ)	.	.
16D'LL	.	16F#'LL	.	16B'LL	.	16dd'LL	.	ii6
(16D	.	(16F#	.	(16B	.	(16dd	.	.
16C#	.	16E	.	16c#	.	16ee	.	.
16BBJJ)	.	16DJJ)	.	16dJJ)	.	16ff#JJ)	.	.
=36	=36	=36	=36	=36	=36	=36	=36	=36
8E	.	16A'LL	.	16c#'LL	.	16ee'LL	.	V(64)
.	.	(16A	.	(16c#	.	(16ee	.	.
8r	.	16G#	.	16B	.	16dd	.	.
.	.	16AJJ)	.	16AJJ)	.	16cc#JJ)	.	.
16GG#'LL	.	16ELL	.	16dLL	.	16b'LL	.	V65
(16GG#	.	16E	.	16d	.	(16b	.	.
16FF#	.	16E	.	16d	.	16ee	.	V7
16EEJJ	.	16EJJ	.	16dJJ	.	16g#JJ	.	.
=	=	=	=	=	=	=	=	=
4AA)	.	4E	.	4c#	.	4a)	.	I\\
=37:|!|:	=37:|!|:	=37:|!|:	=37:|!|:	=37:|!|:	=37:|!|:	=37:|!|:	=37:|!|:	=37:|!|:
4r	.	4r	.	16ccX'LL	p	4r	.	IV.#viio7/ii
.	.	.	.	(16cc	.	.	.	.
.	.	.	.	16b	.	.	.	.
.	.	.	.	16aJJ)	.	.	.	.
=38	=38	=38	=38	=38	=38	=38	=38	=38
4r	.	16f#'LL	p	16a'LL	.	4r	.	.
.	.	(16f#	.	(16a	.	.	.	.
.	.	16e	.	16g	.	.	.	.
.	.	16d#XJJ)	.	16f#JJ)	.	.	.	.
16cX'LL	p	16a'LL	.	16f#'LL	.	16dd#X'LL	p	.
(16c	.	(16a	.	(16f#	.	(16dd#	.	.
16B	.	16g	.	16g	.	16ee	.	.
16AJJ)	.	16f#JJ)	.	16aJJ)	.	16ff#JJ)	.	.
=39	=39	=39	=39	=39	=39	=39	=39	=39
16G'LL	.	16B'LL	.	8b	.	16gg'LL	.	ii6
(16G	.	(16B	.	.	.	(16gg	.	.
16F#	.	16A	.	8r	.	16aa	.	.
16EJJ)	.	16GJJ)	.	.	.	16bbJJ)	.	.
4r	.	4r	.	16b'LL	.	4r	.	.
.	.	.	.	(16b	.	.	.	.
.	.	.	.	16a	.	.	.	.
.	.	.	.	16gJJ)	.	.	.	.
=40	=40	=40	=40	=40	=40	=40	=40	=40
4r	.	16e'LL	.	16g'LL	.	4r	.	.
.	.	(16e	.	(16g	.	.	.	.
.	.	16d	.	16f#	.	.	.	.
.	.	16c#JJ)	.	16eJJ)	.	.	.	.
16B-X'LL	.	16g'LL	.	16e'LL	.	16cc#'LL	.	#viio43
(16B-	.	(16g	.	(16e	.	(16cc#	.	.
16A	.	16f#	.	16f#	.	16dd	.	.
16GJJ)	.	16eJJ)	.	16gJJ)	.	16eeJJ)	.	.
=41	=41	=41	=41	=41	=41	=41	=41	=41
16F#'LL	.	16A'LL	.	8a	.	16ff#'LL	.	I6
(16F#	.	(16A	.	.	.	(16ff#	.	.
16E	.	16G	.	8r	.	16gg	.	viio6
16DJJ)	.	16F#JJ)	.	.	.	16aaJJ)	.	I
!LO:TX:b:Bi:t=cresc.	!	!LO:TX:b:Bi:t=cresc.	!	!LO:TX:b:Bi:t=cresc.	!	!LO:TX:a:Bi:t=cresc.	!	!
8AAL	.	16D'LL	.	16f#'LL	.	16ff#'LL	.	V[I
.	.	(16D	.	(16f#	.	(16ff#	.	.
8AJ	.	16E	.	16e	.	16ee	.	.
.	.	16F#JJ)	.	16dJJ)	.	16ddJJ)	.	.
=42	=42	=42	=42	=42	=42	=42	=42	=42
8AAL	.	16C#'LL	.	16g'LL	.	16gg'LL	.	viio
.	.	(16C#	.	(16g	.	(16gg	.	.
8AJ	.	16D	.	16f#	.	16ff#	.	.
.	.	16EJJ)	.	16eJJ)	.	16eeJJ)	.	.
8AAL	.	16D'LL	.	16f#'LL	.	16ff#'LL	.	I
.	.	(16D	.	(16f#	.	(16ff#	.	.
8AJ	.	16E	.	16e	.	16ee	.	.
.	.	16F#JJ)	.	16dJJ)	.	16ddJJ)	.	.
=43	=43	=43	=43	=43	=43	=43	=43	=43
8AAL	.	4G	.	16c#'LL	.	16cc#'LL	.	viio64]
.	.	.	.	(16c#	.	(16cc#	.	.
8AJ	.	.	.	16B	.	16b	.	.
.	.	.	.	16AJJ)	.	16aJJ)	.	.
16DD'LL	.	8AAL	.	16f#'LL	.	16ff#'LL	.	I
(16DD	.	.	.	(16f#	.	(16ff#	.	.
16EE	.	8AJ	.	16e	.	16ee	.	.
16FF#JJ)	.	.	.	16dJJ)	.	16ddJJ)	.	.
=44	=44	=44	=44	=44	=44	=44	=44	=44
16CC#'LL	.	8AAL	.	16g'LL	.	16gg'LL	.	V65
(16CC#	.	.	.	(16g	.	(16gg	.	.
16DD	.	8AJ	.	16f#	.	16ff#	.	.
16EEJJ)	.	.	.	16eJJ)	.	16eeJJ)	.	.
16DD'LL	.	8AAL	.	16f#'LL	.	16ff#'LL	.	I
(16DD	.	.	.	(16f#	.	(16ff#	.	.
16CC#	.	8AJ	.	16e	.	16ee	.	.
16DDJJ)	.	.	.	16dJJ)	.	16ddJJ)	.	.
=45	=45	=45	=45	=45	=45	=45	=45	=45
8AAA	.	8AA	.	4a	fp	[2aa	fp	V\\
8r	.	8r	.	.	.	.	.	.
!	!LO:DY:a	!	!	!	!	!	!	!
[4A	fp fp	[4A	.	16a'LL	.	.	.	.
.	.	.	.	(16a	.	.	.	.
.	.	.	.	16g	.	.	.	.
.	.	.	.	16f#JJ)	.	.	.	.
=46	=46	=46	=46	=46	=46	=46	=46	=46
16ALL]	.	2A_	.	16f#'LL	.	2aa_	.	I6
16A	.	.	.	(16f#	.	.	.	.
16G	.	.	.	16e	.	.	.	.
16F#JJ	.	.	.	16dJJ)	.	.	.	.
16F#'LL	.	.	.	16d'LL	.	.	.	.
16F#	.	.	.	(16d	.	.	.	.
16E	.	.	.	16c#	.	.	.	.
16DJJ	.	.	.	16dJJ)	.	.	.	.
=47	=47	=47	=47	=47	=47	=47	=47	=47
8C#	.	2A_	.	(16d#XLL	.	4aa]	.	V6
.	.	.	.	16e)	.	.	.	.
8r	.	.	.	16e'	.	.	.	.
.	.	.	.	16e'JJ	.	.	.	.
4r	.	.	.	16b'LL	.	16bb'LL	.	.
.	.	.	.	(16b	.	(16bb	.	.
.	.	.	.	16a	.	16aa	.	.
.	.	.	.	16gJJ)	.	16ggJJ)	.	V65
=48	=48	=48	=48	=48	=48	=48	=48	=48
16B'LL	.	2A_	.	16g'LL	.	16gg'LL	.	V7
(16B	.	.	.	(16g	.	(16gg	.	.
16A	.	.	.	16f#	.	16ff#	.	.
16GJJ)	.	.	.	16eJJ)	.	16eeJJ)	.	.
16G'LL	.	.	.	16e'LL	.	16ee'LL	.	V2
(16G	.	.	.	(16e	.	(16ee	.	.
16F#	.	.	.	16d)	.	16dd)	.	I6
16EJJ)	.	.	.	16e'JJ	.	16ee'JJ	.	.
=49	=49	=49	=49	=49	=49	=49	=49	=49
8D	.	8A]	.	16f#'LL	.	(16ee#XLL	.	I
.	.	.	.	(16d	.	16ff#)	.	.
8r	.	8r	.	16c#	.	16ff#'	.	.
.	.	.	.	16cXJJ)	.	16ff#'JJ	.	V7/IV
(4G	.	[4d	.	16B'LL	.	16gg'LL	.	IV
.	.	.	.	(16b	.	(16gg	.	.
.	.	.	.	16a	.	16aa	.	.
.	.	.	.	16gJJ)	.	16bbJJ)	.	.
=50	=50	=50	=50	=50	=50	=50	=50	=50
8D)	.	8d]	.	16f#'LL	.	16aa'LL	.	I
.	.	.	.	(16f#	.	(16aa	.	.
8r	.	8r	.	16g	.	16gg	.	.
.	.	.	.	16aJJ)	.	16ff#JJ)	.	.
(4AA	.	(4c#	.	16g'LL	.	16ee'LL	.	V7
.	.	.	.	(16g	.	(16ee	.	.
.	.	.	.	16f#	.	16ff#	.	.
.	.	.	.	16eJJ)	.	16ggJJ)	.	.
=51	=51	=51	=51	=51	=51	=51	=51	=51
!	!	!	!LO:DY:a	!	!	!	!	!
8D)	f	16d'LL)	f f	16d'LL	.	16ff#'LL	f	I
.	.	(16d	.	(16d	.	(16ff#	.	.
8r	.	16c#	.	16e	.	16ee	.	.
.	.	16cXJJ)	.	16f#JJ)	.	16ddJJ)	.	.
16GG'LL	.	16B'LL	.	16g'LL	.	16gg'LL	.	ii6
(16GG	.	(16B	.	(16e	.	(16gg	.	.
16FF#	.	16A	.	16f#	.	16aa	.	.
16EEJJ)	.	16GJJ)	.	16gJJ)	.	16bbJJ)	.	ii
=52	=52	=52	=52	=52	=52	=52	=52	=52
8AA	.	16ALL	.	16f#'LL	.	16aa'LL	.	V(64)
.	.	(16A	.	(16f#	.	(16aa	.	.
8r	.	16A	.	16e	.	16gg	.	.
.	.	16AJJ)	.	16dJJ)	.	16ff#JJ)	.	.
16CC#'LL	.	16AALL 16A	.	16gLL	.	16ee'LL	.	V65
(16CC#	.	16AA 16A	.	16g	.	(16ee	.	.
16BBB	.	16AA 16A	.	16g	.	16aa	.	.
16AAAJJ	.	16AAJJ 16A	.	16gJJ	.	16cc#JJ	.	V7
=	=	=	=	=	=	=	=	=
4DD)	.	4D	.	4f#	.	4dd)	.	I\\
=53:|!	=53:|!	=53:|!	=53:|!	=53:|!	=53:|!	=53:|!	=53:|!	=53:|!
4r	.	4r	.	4r	.	16ff#'LL	p	I
.	.	.	.	.	.	(16ff#	.	.
.	.	.	.	.	.	16ee	.	.
.	.	.	.	.	.	16ddJJ)	.	.
=54	=54	=54	=54	=54	=54	=54	=54	=54
2r	.	4r	.	16f#'LL	p	16dd'LL	.	.
.	.	.	.	(16f#	.	(16dd	.	.
.	.	.	.	16e	.	16cc#	.	.
.	.	.	.	16dJJ)	.	16bJJ)	.	.
.	.	16f#'LL	p	16d'LL	.	16b'LL	.	.
.	.	(16f#	.	(16d	.	(16b	.	.
.	.	16e	.	16c#	.	16a	.	.
.	.	16dJJ)	.	16BJJ)	.	16g#JJ)	.	I.#viio6
=55	=55	=55	=55	=55	=55	=55	=55	=55
4r	.	16d'LL	.	16B'LL	.	16g#'LL	.	.
.	.	(16d	.	(16B	.	(16g#	.	.
.	.	16c#	.	16A	.	16f#	.	.
.	.	16BJJ)	.	16G#JJ)	.	16eJJ)	.	V
16F#'LL	p	8B	.	8G#	.	8e	.	.
(16F#	.	.	.	.	.	.	.	.
!LO:TX:b:Bi:t=cresc.	!	!	!	!	!	!	!	!
16E	.	8r	.	8r	.	8r	.	.
16DJJ)	.	.	.	.	.	.	.	.
=56	=56	=56	=56	=56	=56	=56	=56	=56
!	!	!LO:TX:b:Bi:t=cresc.	!	!LO:TX:b:Bi:t=cresc.	!	!LO:TX:b:Bi:t=cresc.	!	!
16D'LL	.	8e	.	8B	.	8g#	.	V2
(16D	.	.	.	.	.	.	.	.
16C#	.	8r	.	8r	.	8r	.	.
16BBJJ)	.	.	.	.	.	.	.	.
16BB'LL	.	8g#	.	8e	.	8b	.	V64
(16BB	.	.	.	.	.	.	.	.
16AA	.	8r	.	8r	.	8r	.	.
16GG#JJ)	.	.	.	.	.	.	.	.
=57	=57	=57	=57	=57	=57	=57	=57	=57
16GG#'LL	.	8e	.	8b	.	8dd	.	V65
(16GG#	.	.	.	.	.	.	.	.
16FF#	.	8r	.	8r	.	8r	.	.
16EEJJ)	.	.	.	.	.	.	.	.
16GG#'LL	.	8e	.	8b	.	8gg#	.	V6
(16GG#	.	.	.	.	.	.	.	.
16FF#	.	8r	.	8r	.	8r	.	.
16EEJJ)	.	.	.	.	.	.	.	.
=58	=58	=58	=58	=58	=58	=58	=58	=58
16GG#'LL	.	8e	.	8dd	.	8bb	.	V65
(16GG#	.	.	.	.	.	.	.	.
16FF#	.	8r	.	8r	.	8r	.	.
16EEJJ)	.	.	.	.	.	.	.	.
16GG#'LL	.	8e	.	8b	.	8ddd	.	.
(16GG#	.	.	.	.	.	.	.	.
16FF#	.	8r	.	8r	.	8r	.	.
16EEJJ)	.	.	.	.	.	.	.	.
=59	=59	=59	=59	=59	=59	=59	=59	=59
!	!	!	!	!	!LO:DY:a	!	!	!
16GG#'LL	sf	4G#;	sf	4B;	sf sf	4E; 4d	.	.
(16GG#	.	.	.	.	.	.	.	.
16FF#	.	.	.	.	.	.	.	.
16EEJJ)	.	.	.	.	.	.	.	.
=60||	=60||	=60||	=60||	=60||	=60||	=60||	=60||	=60||
*k[f#c#g#]	*	*k[f#c#g#]	*	*k[f#c#g#]	*	*k[f#c#g#]	*	*
*A:	*	*A:	*	*A:	*	*A:	*	*
*M3/4	*	*M3/4	*	*M3/4	*	*M3/4	*	*
!	!	!	!	!	!	!LO:TX:a:B:t=Adagio	!	!
4E	p	4r	.	4r	.	4r	.	.
=61	=61	=61	=61	=61	=61	=61	=61	=61
(4.A	.	8r	p	8r	p	8r	p	I
.	.	(8EL	.	(8AL	.	(8c#L	.	.
.	.	8A	.	8c#	.	8e	.	.
8EL	.	8c#	.	8e	.	8a	.	.
8C#	.	8e	.	8a	.	8cc#	.	.
8AAJ)	.	8aJ)	.	8cc#J)	.	8eeJ)	.	.
=62	=62	=62	=62	=62	=62	=62	=62	=62
(4AA	.	2b	.	2dd	.	2ee	.	V65
4GG#	.	.	.	.	.	.	.	.
4AA)	.	4A	.	4c#	.	4e	.	I
(32qqBB/LLL	.	.	.	.	.	.	.	.
32qqAA/	.	.	.	.	.	.	.	.
32qqGG#/	.	.	.	.	.	.	.	.
32qqAA/JJJ)	.	.	.	.	.	.	.	.
=63	=63	=63	=63	=63	=63	=63	=63	=63
!	!	!	!LO:DY:a	!	!	!	!	!
(4C#	sf	(4GX	sf sf	(4A#X	.	4.e	sf	V43
8BB)	.	8G#)	.	8d)	.	.	.	.
8r	.	(8EL	.	8r	.	8r	.	.
8r	.	8G#	.	4r	.	4r	.	.
8BB	.	8BJ)	.	.	.	.	.	.
=64	=64	=64	=64	=64	=64	=64	=64	=64
!LO:TX:b:Bi:t=cresc.	!	!LO:TX:a:Bi:t=cresc.	!	!	!	!	!	!
(4.D	.	(4.d	.	4r	.	8r	.	viio43
!	!	!	!	!	!	!LO:TX:b:Bi:t=cresc.	!	!
.	.	.	.	.	.	8g#	.	.
.	.	.	.	8r	.	(8ffXL	.	.
!	!	!	!	!LO:TX:b:Bi:t=cresc.	!	!	!	!
8BBL	.	8G#L	.	(4d	.	[8eeJ)	.	V43
8GG#	.	8B	.	.	.	8.eeL]	.	V65
8AAJ)	.	8AJ)	.	8c#)	.	.	.	.
.	.	.	.	.	.	32ddLL	.	I
.	.	.	.	.	.	32cc#JJJ	.	.
=65	=65	=65	=65	=65	=65	=65	=65	=65
4DD	.	(4D	.	(4f#	.	(8cc#L	.	ii6(2)
.	.	.	.	.	.	8b	.	ii6
*clefG2	*	*	*	*	*	*	*	*
[4ff#	.	4BB	.	4d)	.	8dd	.	ii
.	.	.	.	.	.	[8ff#J	.	.
(16ff#LL]	.	4E)	.	(8G#L	.	8ff#L])	.	V9
32eeL	.	.	.	.	.	.	.	.
32dd	.	.	.	.	.	.	.	.
32cc#	.	.	.	8dJ)	.	[8g#J	.	.
32b	.	.	.	.	.	.	.	.
32a	.	.	.	.	.	.	.	.
32g#JJJ)	.	.	.	.	.	.	.	.
=66	=66	=66	=66	=66	=66	=66	=66	=66
!	!	!	!	!	!LO:DY:a	!	!	!
(4b	.	4.AA	.	(4d	p	32g#LLL]	.	I(4)
.	.	.	.	.	.	(32a	.	.
.	.	.	.	.	.	32b	.	.
.	.	.	.	.	.	32cc#	.	.
.	.	.	.	.	.	32dd	.	.
.	.	.	.	.	.	32e	.	.
.	.	.	.	.	.	32f#	.	.
.	.	.	.	.	.	32g#JJJ)	.	.
8a)	.	.	.	8c#)	.	8a	.	I
8r	.	8r	.	8r	.	8r	.	.
4r	.	4r	.	4r	.	(16ALL	.	.
.	.	.	.	.	.	16c#	.	.
.	.	.	.	.	.	16e	.	.
.	.	.	.	.	.	16aJJ)	.	.
=67	=67	=67	=67	=67	=67	=67	=67	=67
(16AAALL	p	4.A	p	4.E 4.c#	.	[4cc#	p	.
16AA	.	.	.	.	.	.	.	.
16C#	.	.	.	.	.	.	.	.
16EJJ)	.	.	.	.	.	.	.	.
4A	.	.	.	.	.	(32cc#LLL]	.	.
.	.	.	.	.	.	32b	.	.
.	.	.	.	.	.	32a	.	.
.	.	.	.	.	.	32g#	.	.
.	.	8r	.	8r	.	32a	.	.
.	.	.	.	.	.	32b	.	.
.	.	.	.	.	.	32cc#	.	.
.	.	.	.	.	.	32ddJJJ)	.	.
4r	.	4r	.	4r	.	(32eeLLL	.	.
.	.	.	.	.	.	32dd#X	.	.
.	.	.	.	.	.	32ff#	.	.
.	.	.	.	.	.	32ee	.	.
.	.	.	.	.	.	32dd	.	.
.	.	.	.	.	.	32cc#	.	.
.	.	.	.	.	.	32b	.	.
.	.	.	.	.	.	32aJJJ)	.	.
=68	=68	=68	=68	=68	=68	=68	=68	=68
(8AAL	.	(8EL	.	(8c#L	.	(8.cc#L	.	.
8C#	.	8A	.	8e	.	.	.	.
.	.	.	.	.	.	32ddLL	.	.
.	.	.	.	.	.	32cc#JJJ)	.	.
8EJ)	.	8G#J)	.	8BJ)	.	8b	.	V\\
8r	.	8r	.	8r	.	8r	.	.
4r	.	4r	.	4r	.	(32ELLL	.	I
.	.	.	.	.	.	32A	.	.
.	.	.	.	.	.	32c#	.	.
.	.	.	.	.	.	32A	.	.
.	.	.	.	.	.	32e	.	.
.	.	.	.	.	.	32c#	.	.
.	.	.	.	.	.	32a	.	.
.	.	.	.	.	.	32eJJJ)	.	.
=69	=69	=69	=69	=69	=69	=69	=69	=69
(32AAALLL	.	2A	.	2E 2c#	.	[4cc#	.	.
32EE	.	.	.	.	.	.	.	.
32AA	.	.	.	.	.	.	.	.
32EE	.	.	.	.	.	.	.	.
32C#	.	.	.	.	.	.	.	.
32AA	.	.	.	.	.	.	.	.
32E	.	.	.	.	.	.	.	.
32C#JJJ)	.	.	.	.	.	.	.	.
8A	.	.	.	.	.	(64cc#LLLL]	.	.
.	.	.	.	.	.	64b	.	.
.	.	.	.	.	.	64a	.	.
.	.	.	.	.	.	64g#	.	.
.	.	.	.	.	.	64a	.	.
.	.	.	.	.	.	64b	.	.
.	.	.	.	.	.	64cc#	.	.
.	.	.	.	.	.	64dd	.	.
8r	.	.	.	.	.	64ff#	.	.
.	.	.	.	.	.	64ee	.	.
.	.	.	.	.	.	64dd	.	.
.	.	.	.	.	.	64cc#	.	.
.	.	.	.	.	.	64dd	.	.
.	.	.	.	.	.	64ee	.	.
.	.	.	.	.	.	64ff#	.	.
.	.	.	.	.	.	64gg#JJJJ	.	.
4r	.	4r	.	4r	.	64aaLLLL	.	.
.	.	.	.	.	.	64gg#	.	.
.	.	.	.	.	.	64ccc#	.	.
.	.	.	.	.	.	64bb	.	.
.	.	.	.	.	.	64aa	.	.
.	.	.	.	.	.	64gg#	.	.
.	.	.	.	.	.	64ff#	.	.
.	.	.	.	.	.	64ee	.	.
.	.	.	.	.	.	64dd#X	.	.
.	.	.	.	.	.	64ee	.	.
.	.	.	.	.	.	64ff#	.	.
.	.	.	.	.	.	64ee	.	.
.	.	.	.	.	.	64dd	.	.
.	.	.	.	.	.	64cc#	.	.
.	.	.	.	.	.	64b	.	.
.	.	.	.	.	.	64aJJJJ)	.	.
=70	=70	=70	=70	=70	=70	=70	=70	=70
(8AAL	.	(8EL	.	(8c#L	.	8cc#L	.	.
.	.	.	.	.	.	(32qqdd/LLL	.	.
.	.	.	.	.	.	32qqcc#/	.	.
.	.	.	.	.	.	32qqb/JJJ)	.	.
8C#J	.	8A	.	8e	.	(32cc#LL	.	.
.	.	.	.	.	.	32dd	.	.
.	.	.	.	.	.	32dd#X	.	.
.	.	.	.	.	.	32eeJJJ)	.	.
32ELLL)	.	8G#J)	.	8BJ)	.	8b	.	V\\
(32EE	.	.	.	.	.	.	.	.
32GG#	.	.	.	.	.	.	.	.
32BB	.	.	.	.	.	.	.	.
32E	.	8r	.	8r	.	8r	.	.
32G#	.	.	.	.	.	.	.	.
32B	.	.	.	.	.	.	.	.
32AJJJ	.	.	.	.	.	.	.	.
.	.	.	.	.	.	8qa#X/	.	.
32G#LLL	.	4r	.	4r	.	8bL	.	.
32F#	.	.	.	.	.	.	.	.
32E	.	.	.	.	.	.	.	.
32D#X	.	.	.	.	.	.	.	.
.	.	.	.	.	.	8qa#/	.	.
32E	.	.	.	.	.	8bJ	.	.
32BB	.	.	.	.	.	.	.	.
32GG#	.	.	.	.	.	.	.	.
32EEJJJ)	.	.	.	.	.	.	.	.
=71	=71	=71	=71	=71	=71	=71	=71	=71
4AA	.	(8F#L	<	(8d#XL	<	4.b	.	V6
.	.	16.D#XL	>	16.f#L	>	.	.	.
.	.	32BBJJk)	]	32d#JJk)	]	.	.	.
[4GG#	.	4E	]	4g#	]	.	.	.
.	.	.	.	.	.	(16.cc#LL	.	.
.	.	.	.	.	.	32bJJk)	.	.
(32GG#LLL]	.	4r	.	4r	.	(16.eeLL	.	.
32BB	.	.	.	.	.	.	.	.
32AA#X	.	.	.	.	.	.	.	.
32BB	.	.	.	.	.	32bK)	.	.
32AA	.	.	.	.	.	(16.gg#	.	.
32GG#	.	.	.	.	.	.	.	.
32FF#	.	.	.	.	.	.	.	.
32EEJJJ)	.	.	.	.	.	32bJJk)	.	.
=72	=72	=72	=72	=72	=72	=72	=72	=72
4AA	< >	(8F#L	<	(8d#XL	<	[4b	> <	V.V2
.	.	32D#XLL	.	32f#LL	.	.	.	.
.	.	32BB	[ >	32d#	[ >	.	.	.
.	.	32D#	.	32f#	.	.	.	.
.	.	32BBJJJ)	.	32d#JJJ)	.	.	.	.
[4GG#	.	8E	]	8g#	]	32bLLL]	.	I6
.	.	.	.	.	.	32b'	.	.
.	.	.	.	.	.	32b'	.	.
.	.	.	.	.	.	32b'JJJ	.	.
.	.	4E	.	(4B	.	(32cc#LLL	.	.
.	.	.	.	.	.	32b)	.	.
.	.	.	.	.	.	32b'	.	.
.	.	.	.	.	.	32b'JJJ	.	.
(32GG#LLL]	.	.	.	.	.	(32eeLLL	.	.
32BB	.	.	.	.	.	32b)	.	.
32AA#X	.	.	.	.	.	32b'	.	.
32BB	.	.	.	.	.	32b'JJJ	.	.
32AA	.	8E	.	8B#X)	.	(32gg#LLL	.	V+6
32GG#	.	.	.	.	.	32b#X)	.	.
32FF#	.	.	.	.	.	32b#'	.	.
32EEJJJ)	]]	.	.	.	.	32b#'JJJ	[[	.
=73	=73	=73	=73	=73	=73	=73	=73	=73
!LO:TX:b:Bi:t=cresc.	!	!LO:TX:b:Bi:t=cresc.	!	!LO:TX:b:Bi:t=cresc.	!	!LO:TX:b:Bi:t=cresc.	!	!
(8.AAL	]	(16ELL	.	(8.c#L	.	(32dd#XLLL	[	IV
.	.	.	.	.	.	32cc#	.	.
.	.	16E#X	.	.	.	32b	.	.
.	.	.	.	.	.	32a	.	.
.	.	16F#	.	.	.	32g#	.	.
.	.	.	.	.	.	32f#)	.	.
16AA#XJk)	.	16GXJJ)	.	16eJk)	.	32cc#'	.	#viio7/V
.	.	.	.	.	.	32cc#'JJJ	.	.
4BB	p	8G#L	p	(8eL	p	(8cc#L	p	V(64)
.	.	(8G#J	.	(8BJ)	.	[8eJ)	.	V
4BBB	.	8F#L)	.	8AL)	.	8e]	.	V7(4)
.	.	.	.	.	.	(8qqf#/L	.	.
.	.	.	.	.	.	8qqe/	.	.
.	.	.	.	.	.	8qqd#X/	.	.
.	.	.	.	.	.	8qqe/	.	.
.	.	.	.	.	.	8qqf#/	.	.
.	.	.	.	.	.	8qqg#/	.	.
.	.	.	.	.	.	8qqa/	.	.
.	.	.	.	.	.	8qqb/J)	.	.
.	.	8F#J	.	8AJ	.	16cc#LL	.	.
.	.	.	.	.	.	32r	.	.
.	.	.	.	.	.	32d#JJk	.	V7
=74	=74	=74	=74	=74	=74	=74	=74	=74
[4EE	.	8r	.	32r	.	(4f#	.	I(+2)
.	.	.	.	(32ALLL	.	.	.	.
.	.	.	.	32G#	.	.	.	.
.	.	.	.	32A	.	.	.	.
.	.	(8D#XL	.	32G#	.	.	.	.
.	.	.	.	32A	.	.	.	.
.	.	.	.	32B	.	.	.	.
.	.	.	.	32AJJJ)	.	.	.	.
(32EELLL]	.	8EJ)	.	8G#	.	8e)	.	I
32EE	.	.	.	.	.	.	.	.
32GG#	.	.	.	.	.	.	.	.
32BB	.	.	.	.	.	.	.	.
32E	.	8r	.	8r	.	8r	.	.
32GG#	.	.	.	.	.	.	.	.
32BB	.	.	.	.	.	.	.	.
32EJJJ	.	.	.	.	.	.	.	.
32G#LLL	.	4r	.	4r	.	(8e'L	.	.
32BB	.	.	.	.	.	.	.	.
32E	.	.	.	.	.	.	.	.
32G#	.	.	.	.	.	.	.	.
32B	.	.	.	.	.	8e'J)	.	.
32E	.	.	.	.	.	.	.	.
32G#	.	.	.	.	.	.	.	.
32BJJJ)	.	.	.	.	.	.	.	.
=75	=75	=75	=75	=75	=75	=75	=75	=75
(4.d	<	(4.B	<	(4.e	<	(4.g#	<	I.V2
8c#	.	8A	.	8e	.	8a	.	I6
8G#L	[ >	8dL	[ >	8eL	[ >	8bL	[ >	V65
16.AL	.	16.c#L	.	16.eL	.	16.cc#L	.	I
32c#JJk)	]]	32eJJk)	]]	32aJJk)	]]	32aJJk)	]]	.
=76	=76	=76	=76	=76	=76	=76	=76	=76
[8eL	.	8eL	.	(4a	.	(4cc#	.	V(64)
(32eLL]	.	8EJ	.	.	.	.	.	.
32d#X	.	.	.	.	.	.	.	.
32e	.	.	.	.	.	.	.	.
32d#JJJ	.	.	.	.	.	.	.	.
32eLLL)	.	8E	.	8g#)	.	8b)	.	V\\
(32EE	.	.	.	.	.	.	.	.
32GG#	.	.	.	.	.	.	.	.
32BB	.	.	.	.	.	.	.	.
32E	.	8r	.	8r	.	8r	.	.
32GG#	.	.	.	.	.	.	.	.
32BB	.	.	.	.	.	.	.	.
32EJJJ	.	.	.	.	.	.	.	.
32G#LLL	.	4r	.	(8e'L	.	(8eeL	.	.
32BB	.	.	.	.	.	.	.	.
32E	.	.	.	.	.	.	.	.
32G#	.	.	.	.	.	.	.	.
32B	.	.	.	8e'J)	.	8eeJ)	.	.
32E	.	.	.	.	.	.	.	.
32G#	.	.	.	.	.	.	.	.
32BJJJ)	.	.	.	.	.	.	.	.
=77	=77	=77	=77	=77	=77	=77	=77	=77
!LO:TX:b:Bi:t=cresc.	!	!LO:TX:b:Bi:t=cresc.	!	!LO:TX:b:Bi:t=cresc.	!	!LO:TX:b:Bi:t=cresc.	!	!
(4.d	.	4.e	.	(4.b	.	(4.gg#	.	V2
8c#L	.	8e	.	8a	.	8aa	.	I6
8G#	.	8eL	.	8ddL	.	8bbL	.	V65
8AJ)	.	(16.eL	.	16.cc#L	.	16.ccc#L	.	I
.	.	32c#JJk)	.	32aJJk)	.	32aaJJk)	.	.
=78	=78	=78	=78	=78	=78	=78	=78	=78
!	!LO:DY:a	!	!	!	!	!	!	!
8E	fp fp	8B	.	[4dd	fp	[4ddd	fp	V7
8r	.	8r	.	.	.	.	.	.
[4EE	.	8E	.	(16ddLL]	.	(16dddLL]	.	.
.	.	.	.	16b	.	16bb	.	.
.	.	8r	.	16g#	.	16gg#	.	.
.	.	.	.	16eJJ	.	16eeJJ	.	.
(32EELLL]	.	4r	.	16fXLL	.	16ffXLL	.	.
32DD#X	.	.	.	.	.	.	.	.
32EE	.	.	.	16f#	.	16ff#	.	.
32DD#	.	.	.	.	.	.	.	.
32EE	.	.	.	16gX	.	16ggX	.	.
32DD	.	.	.	.	.	.	.	.
32CC#	.	.	.	16g#JJ)	.	16gg#JJ)	.	.
32BBBJJJ	.	.	.	.	.	.	.	.
=79	=79	=79	=79	=79	=79	=79	=79	=79
32AAA'LLL)	.	4r	.	[2c# [2a	.	(4.aa	.	I
(32AAA	.	.	.	.	.	.	.	.
32CC#	.	.	.	.	.	.	.	.
32EE	.	.	.	.	.	.	.	.
32AA	.	.	.	.	.	.	.	.
32EE	.	.	.	.	.	.	.	.
32CC#	.	.	.	.	.	.	.	.
32AAAJJJ)	.	.	.	.	.	.	.	.
2AA	.	32r	.	.	.	.	.	.
.	.	(32AALLL	.	.	.	.	.	.
.	.	32C#	.	.	.	.	.	.
.	.	32E	.	.	.	.	.	.
.	.	32A	.	.	.	8ee	.	.
.	.	32E	.	.	.	.	.	.
.	.	32C#	.	.	.	.	.	.
.	.	32AAJJJ)	.	.	.	.	.	.
.	.	[4A	.	32c#LLL] 32a]	.	8cc#L	.	.
.	.	.	.	(32A	.	.	.	.
.	.	.	.	32c#	.	.	.	.
.	.	.	.	32e	.	.	.	.
.	.	.	.	32a	.	8aJ)	.	.
.	.	.	.	32e	.	.	.	.
.	.	.	.	32c#	.	.	.	.
.	.	.	.	32AJJJ)	.	.	.	.
=80	=80	=80	=80	=80	=80	=80	=80	=80
32GGX'LLL	.	4A_	.	[2cc#	.	(4.aa	.	V2/IV
(32GG	.	.	.	.	.	.	.	.
32C#	.	.	.	.	.	.	.	.
32E	.	.	.	.	.	.	.	.
32GX	.	.	.	.	.	.	.	.
32E	.	.	.	.	.	.	.	.
32C#	.	.	.	.	.	.	.	.
32GGJJJ)	.	.	.	.	.	.	.	.
4G	.	32ALLL]	.	.	.	.	.	.
.	.	(32AA	.	.	.	.	.	.
.	.	32C#	.	.	.	.	.	.
.	.	32E	.	.	.	.	.	.
.	.	32A	.	.	.	8ee	.	.
.	.	32E	.	.	.	.	.	.
.	.	32C#	.	.	.	.	.	.
.	.	32AAJJJ)	.	.	.	.	.	.
4GG	.	[4A	.	32cc#LLL]	.	8cc#L	.	.
.	.	.	.	(32A	.	.	.	.
.	.	.	.	32c#	.	.	.	.
.	.	.	.	32e	.	.	.	.
.	.	.	.	32a	.	8aJ)	.	.
.	.	.	.	32e	.	.	.	.
.	.	.	.	32c#	.	.	.	.
.	.	.	.	32AJJJ)	.	.	.	.
=81	=81	=81	=81	=81	=81	=81	=81	=81
!LO:TX:b:Bi:t=cresc.	!LO:DY:a	!LO:TX:a:Bi:t=cresc.	!LO:DY:a	!	!	!LO:TX:b:Bi:t=cresc.	!	!
4FF#	f f	8A]	f	32r	.	4aa	f	IV6
.	.	.	.	(32ALLL	.	.	.	.
.	.	.	.	32d	.	.	.	.
.	.	.	.	32f#	.	.	.	.
!	!	!LO:TX:b:Bi:t=cresc.	!	!	!	!	!	!
.	.	4AA 4A	.	32a	.	.	.	.
.	.	.	.	32f#	.	.	.	.
.	.	.	.	32d	.	.	.	.
.	.	.	.	32AJJJ)	.	.	.	.
4FF#	.	.	.	32r	.	4bb	.	ii43
.	.	.	.	(32ALLL	.	.	.	.
.	.	.	.	32d	.	.	.	.
.	.	.	.	32f#	.	.	.	.
.	.	4AA 4A	.	32a	.	.	.	.
.	.	.	.	32f#	.	.	.	.
.	.	.	.	32d	.	.	.	.
.	.	.	.	32AJJJ)	.	.	.	.
4FFX	.	.	.	32r	.	4ccX 4cccX	.	.Ger6
.	.	.	.	(32ALLL	.	.	.	.
.	.	.	.	32a	.	.	.	.
.	.	.	.	32A	.	.	.	.
.	.	(8D#X	.	32a	.	.	.	.
.	.	.	.	32A	.	.	.	.
.	.	.	.	32a	.	.	.	.
.	.	.	.	32AJJJ)	.	.	.	.
=82	=82	=82	=82	=82	=82	=82	=82	=82
(8EEL	fp	8EL)	fp	32r	fp	4cc# [4ccc#	fp	V(64)
.	.	.	.	(32ALLL	.	.	.	.
.	.	.	.	32c#	.	.	.	.
.	.	.	.	32e	.	.	.	.
8AAJ	.	8EJ	.	32a	.	.	.	.
.	.	.	.	32e	.	.	.	.
.	.	.	.	32c#	.	.	.	.
.	.	.	.	32AJJJ)	.	.	.	.
8C#L	.	(8AL	.	32r	.	(32ccc#LLL]	.	.
.	.	.	.	(32ALLL	.	32bb#X	.	.
.	.	.	.	32c#	.	32ddd	.	.
.	.	.	.	32e	.	32ccc#	.	.
8EJ)	.	8c#J	.	32a	.	32bb	.	.
.	.	.	.	32e	.	32aa	.	.
.	.	.	.	32c#	.	32gg#	.	.
.	.	.	.	32AJJJ)	.	32ff#JJJ)	.	.
4EE	.	8dL	.	32r	.	(32eeLLL	.	V7
.	.	.	.	(32G#LLL	.	32ee#X	.	.
.	.	.	.	32B	.	32gg#	.	.
.	.	.	.	32G#	.	32ff#	.	.
.	.	8DJ)	.	32B	.	32ee	.	.
.	.	.	.	32G#	.	32dd	.	.
.	.	.	.	32B	.	32cc#	.	.
.	.	.	.	32G#JJJ)	.	32bJJJ)	.	.
=83	=83	=83	=83	=83	=83	=83	=83	=83
!	!	!	!LO:DY:a	!	!	!	!	!
8AA	pp	8C#	pp pp	8A	.	8a	pp	I\\
8r	.	8r	.	8r	.	8r	.	.
4r	.	4r	.	4r	.	4r	.	.
(16D'LL	.	(16E'LL	.	(16B'LL	.	(16g#'LL	.	V2
16D'	.	16E'	.	16B'	.	16g#'	.	.
16D'	.	16E'	.	16A'	.	16f#'	.	.
16D'JJ)	.	16E'JJ)	.	16G#'JJ)	.	16e'JJ)	.	.
=84	=84	=84	=84	=84	=84	=84	=84	=84
8C#	.	8E	.	8A	.	8a	.	I6
8r	.	8r	.	8r	.	8r	.	.
4r	.	4r	.	4r	.	4r	.	.
(16GG#'LL	.	(16B'LL	.	(16E'LL 16d	.	(16e'LL	.	V65
16GG#'	.	16B'	.	16E' 16d	.	16e'	.	.
16FF#'	.	16A'	.	16E' 16d	.	16e'	.	.
16EE'JJ)	.	16G#'JJ)	.	16E'JJ) 16d	.	16e'JJ)	.	.
=85	=85	=85	=85	=85	=85	=85	=85	=85
8AA	.	8A	.	8E 8c#	.	8e	.	I
8r	.	8r	.	8r	.	8r	.	.
4r	.	(16A'LL	.	4r	.	4r	.	.
.	.	16A'	.	.	.	.	.	.
.	.	16GX'	.	.	.	.	.	.
.	.	16FX'JJ)	.	.	.	.	.	.
!LO:TX:b:Bi:t=cresc.	!	!LO:TX:b:Bi:t=cresc.	!	!LO:TX:b:Bi:t=cresc.	!	!LO:TX:b:Bi:t=cresc.	!	!
(16AA'LL	.	(16F'LL	.	(16A'LL	.	(16d'LL	.	iv
16AA'	.	16F'	.	16A'	.	16d'	.	.
16AA'	.	16E'	.	16c#'	.	16e'	.	.
16AA'JJ)	.	16D'JJ)	.	16d'JJ)	.	16fX'JJ)	.	.
=86	=86	=86	=86	=86	=86	=86	=86	=86
8AA	p	8A	p	8c#	p	8e	p	I
8r	.	8r	.	8r	.	8r	.	.
(16AA'LL	.	4r	.	4r	.	4r	.	.
16AA'	.	.	.	.	.	.	.	.
16GGX'	.	.	.	.	.	.	.	.
!LO:TX:b:Bi:t=cresc.	!	!	!	!	!	!	!	!
16FFX'JJ)	.	.	.	.	.	.	.	.
!	!	!LO:TX:b:Bi:t=cresc.	!	!LO:TX:b:Bi:t=cresc.	!	!LO:TX:b:Bi:t=cresc.	!	!
(16FF'LL	.	(16D'LL	.	16r	.	(16A'LL	.	iv6
16FF'	.	16D'	.	(16A'LL	.	16A'	.	.
16EE'	.	16C#'	.	16E'	.	16A'	.	.
16DD'JJ)	.	16D'JJ)	.	16FX'JJ)	.	16A'JJ)	.	.
=87	=87	=87	=87	=87	=87	=87	=87	=87
8AA	pp	8C#	pp	8E	pp	8A	pp	I
8r	.	8r	.	8r	.	8r	.	.
4r	.	4r	.	4r	.	4r	.	.
8..AAAL	.	8..C#L	.	8..EL	.	8..AL	.	.
32AAAJkk	.	32C#Jkk	.	32EJkk	.	32AJkk	.	.
=88	=88	=88	=88	=88	=88	=88	=88	=88
2AAA;	.	2C#;	.	2E;	.	2A;	.	I\\
==	==	==	==	==	==	==	==	==
*-	*-	*-	*-	*-	*-	*-	*-	*-
!!!system-decoration: [(s1,s2,s3,s4)]
